src/assets/img/providers-white/megajack.svg

<svg width="112" height="28" viewBox="0 0 112 28" fill="none" xmlns="http://www.w3.org/2000/svg">
<path d="M7.17059 1.76498C5.75193 2.23164 4.65059 3.00631 3.86659 4.08898C3.10126 5.15298 2.71859 6.47831 2.71859 8.06498C2.71859 8.77431 2.78393 9.25965 2.91459 9.52098C3.04526 9.78231 3.11059 9.94098 3.11059 9.99698C1.11326 9.99698 0.114594 9.14764 0.114594 7.44898C0.114594 6.29164 0.553261 5.13431 1.43059 3.97698C2.32659 2.80098 3.46526 1.84898 4.84659 1.12098C6.24659 0.37431 7.63726 0.000976562 9.01859 0.000976562C9.70926 0.000976562 10.4186 0.131643 11.1466 0.392977L10.5026 15.149L16.6626 0.392977H20.6946L17.7546 21.001H13.7226L15.5146 8.42898L10.2506 21.001H6.41459L6.97459 8.37298L2.29859 21.001H0.0585938L7.17059 1.76498Z" fill="white"/>
<path d="M24.2257 21.169C22.8443 21.169 21.771 20.8143 21.0057 20.105C20.2403 19.377 19.8577 18.2476 19.8577 16.717C19.8577 15.429 20.1097 14.0103 20.6137 12.461C21.1177 10.9116 21.939 9.57698 23.0777 8.45698C24.2163 7.31831 25.663 6.74898 27.4177 6.74898C29.471 6.74898 30.4977 7.64498 30.4977 9.43698C30.4977 10.4823 30.199 11.4436 29.6017 12.321C29.0043 13.1983 28.211 13.9076 27.2217 14.449C26.2323 14.9716 25.1777 15.2703 24.0577 15.345C24.0203 15.905 24.0017 16.2783 24.0017 16.465C24.0017 17.3796 24.1603 18.005 24.4777 18.341C24.795 18.6583 25.3083 18.817 26.0177 18.817C27.0257 18.817 27.8843 18.5836 28.5937 18.117C29.3217 17.6503 30.115 16.941 30.9737 15.989H31.9257C29.8537 19.4423 27.287 21.169 24.2257 21.169ZM24.2817 14.001C24.9723 13.9636 25.6257 13.721 26.2417 13.273C26.8763 12.825 27.3803 12.2556 27.7537 11.565C28.1457 10.8743 28.3417 10.1463 28.3417 9.38098C28.3417 8.61564 28.1083 8.23298 27.6417 8.23298C26.9697 8.23298 26.307 8.82098 25.6537 9.99698C25.019 11.173 24.5617 12.5076 24.2817 14.001Z" fill="white"/>
<path d="M35.9237 28.001C35.0277 28.001 34.2811 27.7676 33.6837 27.301C33.0864 26.8343 32.7877 26.1623 32.7877 25.285C32.7877 24.221 33.2171 23.3623 34.0757 22.709C34.9344 22.0743 36.0264 21.5423 37.3517 21.113L37.6877 19.629C36.7357 20.6556 35.6157 21.169 34.3277 21.169C33.2637 21.169 32.3771 20.805 31.6677 20.077C30.9584 19.349 30.6037 18.2103 30.6037 16.661C30.6037 15.2796 30.8744 13.833 31.4157 12.321C31.9757 10.7903 32.7971 9.50231 33.8797 8.45698C34.9811 7.39298 36.2877 6.86098 37.7997 6.86098C38.5651 6.86098 39.1344 6.99164 39.5077 7.25298C39.8811 7.51431 40.0677 7.85964 40.0677 8.28898V8.45698L40.3757 7.00098H44.4077L41.6357 19.993C42.5317 19.6943 43.2504 19.2463 43.7917 18.649C44.3331 18.0516 44.7904 17.165 45.1637 15.989H46.3397C45.8357 17.6503 45.1544 18.873 44.2957 19.657C43.4371 20.4223 42.4664 20.945 41.3837 21.225L40.9637 23.241C40.5904 25.0516 39.9464 26.293 39.0317 26.965C38.1171 27.6556 37.0811 28.001 35.9237 28.001ZM36.1477 18.453C36.5771 18.453 37.0157 18.257 37.4637 17.865C37.9117 17.473 38.2197 16.941 38.3877 16.269L39.8157 9.63298C39.8157 9.40898 39.7224 9.18498 39.5357 8.96098C39.3491 8.71831 39.0597 8.59698 38.6677 8.59698C37.9211 8.59698 37.2491 9.03564 36.6517 9.91298C36.0544 10.7716 35.5877 11.817 35.2517 13.049C34.9157 14.2623 34.7477 15.3356 34.7477 16.269C34.7477 17.2023 34.8784 17.7996 35.1397 18.061C35.4197 18.3223 35.7557 18.453 36.1477 18.453ZM35.2797 25.817C35.5971 25.817 35.9051 25.6023 36.2037 25.173C36.5024 24.7436 36.7357 24.1276 36.9037 23.325L37.0717 22.513C35.2424 23.185 34.3277 23.9783 34.3277 24.893C34.3277 25.1356 34.4117 25.3503 34.5797 25.537C34.7477 25.7236 34.9811 25.817 35.2797 25.817Z" fill="white"/>
<path d="M48.5191 21.169C47.4552 21.169 46.5685 20.805 45.8591 20.077C45.1498 19.349 44.7951 18.2103 44.7951 16.661C44.7951 15.2796 45.0658 13.833 45.6071 12.321C46.1671 10.7903 46.9885 9.50231 48.0711 8.45698C49.1725 7.39298 50.4791 6.86098 51.9911 6.86098C52.7565 6.86098 53.3258 6.99164 53.6991 7.25298C54.0725 7.51431 54.2591 7.85964 54.2591 8.28898V8.48498L54.5671 7.00098H58.5991L56.5831 16.521C56.5085 16.801 56.4711 17.0996 56.4711 17.417C56.4711 17.7903 56.5551 18.061 56.7231 18.229C56.9098 18.3783 57.2085 18.453 57.6191 18.453C57.8805 18.453 58.0858 18.4156 58.2351 18.341C57.8245 19.3863 57.4325 20.1236 57.0591 20.553C56.6858 20.9636 56.1445 21.169 55.4351 21.169C54.6698 21.169 54.0445 20.945 53.5591 20.497C53.0925 20.0303 52.8031 19.3863 52.6911 18.565C51.5525 20.301 50.1618 21.169 48.5191 21.169ZM50.3391 18.453C50.8058 18.453 51.2631 18.2383 51.7111 17.809C52.1778 17.361 52.4951 16.7543 52.6631 15.989L54.0071 9.66098C54.0071 9.41831 53.9138 9.18498 53.7271 8.96098C53.5405 8.71831 53.2511 8.59698 52.8591 8.59698C52.1125 8.59698 51.4405 9.03564 50.8432 9.91298C50.2458 10.7716 49.7791 11.817 49.4431 13.049C49.1071 14.2623 48.9391 15.3356 48.9391 16.269C48.9391 17.2023 49.0698 17.7996 49.3311 18.061C49.6111 18.3223 49.9471 18.453 50.3391 18.453Z" fill="white"/>
<path d="M62.8495 26.797C61.5241 26.797 60.4975 26.433 59.7695 25.705C59.0601 24.9956 58.7055 24.0436 58.7055 22.849C58.7055 21.841 59.0135 20.9636 59.6295 20.217C60.2455 19.4703 61.0761 19.097 62.1215 19.097C62.9241 19.097 63.5775 19.2183 64.0815 19.461C64.6041 19.685 64.8655 20.189 64.8655 20.973C64.8655 21.309 64.8095 21.6823 64.6975 22.093C64.3615 21.813 64.0721 21.617 63.8295 21.505C63.5868 21.4116 63.3161 21.365 63.0175 21.365C62.4015 21.365 61.9161 21.5703 61.5615 21.981C61.2255 22.3916 61.0575 22.877 61.0575 23.437C61.0575 24.0903 61.2535 24.5756 61.6455 24.893C62.0375 25.229 62.4761 25.397 62.9615 25.397C63.4095 25.397 63.7828 25.3036 64.0815 25.117C64.3988 24.949 64.6788 24.613 64.9215 24.109C65.1641 23.6236 65.3975 22.905 65.6215 21.953L70.0175 1.96098C68.7668 2.46498 67.7961 3.23964 67.1055 4.28498C66.4148 5.33031 66.0695 6.59964 66.0695 8.09298C66.0695 8.78364 66.1348 9.26898 66.2655 9.54898C66.3961 9.81031 66.4615 9.95964 66.4615 9.99698C65.4535 9.99698 64.6975 9.79164 64.1935 9.38098C63.7081 8.95164 63.4655 8.25164 63.4655 7.28098C63.4655 6.08631 63.9508 4.92898 64.9215 3.80898C65.9108 2.67031 67.1708 1.75564 68.7015 1.06498C70.2321 0.355644 71.7628 0.000976562 73.2935 0.000976562H74.4135L70.2135 19.881C69.7281 22.177 68.9255 23.9036 67.8055 25.061C66.6855 26.2183 65.0335 26.797 62.8495 26.797Z" fill="white"/>
<path d="M76.6012 21.169C75.5372 21.169 74.6505 20.805 73.9412 20.077C73.2318 19.349 72.8772 18.2103 72.8772 16.661C72.8772 15.2796 73.1478 13.833 73.6892 12.321C74.2492 10.7903 75.0705 9.50231 76.1532 8.45698C77.2545 7.39298 78.5612 6.86098 80.0732 6.86098C80.8385 6.86098 81.4078 6.99164 81.7812 7.25298C82.1545 7.51431 82.3412 7.85964 82.3412 8.28898V8.48498L82.6492 7.00098H86.6812L84.6652 16.521C84.5905 16.801 84.5532 17.0996 84.5532 17.417C84.5532 18.2196 84.9358 18.621 85.7012 18.621C86.2238 18.621 86.6718 18.3783 87.0452 17.893C87.4372 17.4076 87.7452 16.773 87.9692 15.989H89.1452C88.4545 18.005 87.5958 19.377 86.5692 20.105C85.5612 20.8143 84.5438 21.169 83.5172 21.169C82.7332 21.169 82.0985 20.9543 81.6132 20.525C81.1465 20.077 80.8665 19.433 80.7732 18.593C80.2318 19.3583 79.6252 19.9836 78.9532 20.469C78.2998 20.9356 77.5158 21.169 76.6012 21.169ZM78.4212 18.453C78.8878 18.453 79.3452 18.2383 79.7932 17.809C80.2598 17.361 80.5772 16.7543 80.7452 15.989L82.0892 9.66098C82.0892 9.41831 81.9958 9.18498 81.8092 8.96098C81.6225 8.71831 81.3332 8.59698 80.9412 8.59698C80.1945 8.59698 79.5225 9.03564 78.9252 9.91298C78.3278 10.7716 77.8612 11.817 77.5252 13.049C77.1892 14.2623 77.0212 15.3356 77.0212 16.269C77.0212 17.2023 77.1518 17.7996 77.4132 18.061C77.6932 18.3223 78.0292 18.453 78.4212 18.453Z" fill="white"/>
<path d="M91.9835 21.169C90.6021 21.169 89.5288 20.8143 88.7635 20.105C87.9981 19.377 87.6155 18.2476 87.6155 16.717C87.6155 15.429 87.8675 14.0103 88.3715 12.461C88.8941 10.9116 89.7155 9.57698 90.8354 8.45698C91.9741 7.31831 93.4115 6.74898 95.1475 6.74898C96.2674 6.74898 97.0608 6.99164 97.5275 7.47698C98.0128 7.96231 98.2555 8.57831 98.2555 9.32498C98.2555 9.97831 98.1154 10.4823 97.8354 10.837C97.5555 11.1916 97.2008 11.369 96.7715 11.369C96.4541 11.369 96.1274 11.257 95.7915 11.033C96.0154 10.417 96.1275 9.86631 96.1275 9.38098C96.1275 9.02631 96.0621 8.74631 95.9315 8.54098C95.8008 8.33564 95.6048 8.23298 95.3435 8.23298C94.7834 8.23298 94.2235 8.69031 93.6635 9.60498C93.1035 10.5196 92.6461 11.6303 92.2915 12.937C91.9368 14.2436 91.7595 15.4196 91.7595 16.465C91.7595 17.3796 91.9181 18.005 92.2355 18.341C92.5528 18.6583 93.0661 18.817 93.7755 18.817C94.7835 18.817 95.6421 18.5836 96.3515 18.117C97.0795 17.6503 97.8728 16.941 98.7315 15.989H99.6834C97.6115 19.4423 95.0448 21.169 91.9835 21.169Z" fill="white"/>
<path d="M109.254 21.169C108.096 21.169 107.219 20.8983 106.622 20.357C106.024 19.797 105.726 19.0036 105.726 17.977C105.726 17.529 105.782 17.0436 105.894 16.521L106.118 15.429C106.192 15.1116 106.23 14.7663 106.23 14.393C106.23 13.497 105.894 13.049 105.222 13.049C104.923 13.049 104.606 13.133 104.27 13.301C103.952 13.469 103.579 13.7303 103.15 14.085L101.694 21.001H97.6615L101.722 1.96098L105.866 1.40098L103.766 11.257L109.17 7.00098H111.942L106.342 10.893C106.622 10.8183 106.93 10.781 107.266 10.781C108.274 10.781 109.039 11.089 109.562 11.705C110.084 12.321 110.346 13.105 110.346 14.057C110.346 14.449 110.308 14.8036 110.234 15.121L109.926 16.521C109.832 16.857 109.786 17.1556 109.786 17.417C109.786 18.1076 110.15 18.453 110.878 18.453C111.288 18.453 111.55 18.425 111.662 18.369C111.774 18.313 111.839 18.285 111.858 18.285C111.82 18.901 111.643 19.4236 111.326 19.853C111.027 20.2823 110.672 20.609 110.262 20.833C109.87 21.057 109.534 21.169 109.254 21.169Z" fill="white"/>
</svg>

<svg width="112" height="28" fill="none" xmlns="http://www.w3.org/2000/svg"><path d="M7.17 1.765c-1.418.467-2.52 1.241-3.303 2.324-.766 1.064-1.148 2.39-1.148 3.976 0 .71.065 1.195.196 1.456.13.261.196.42.196.476-1.998 0-2.996-.85-2.996-2.548 0-1.157.438-2.315 1.316-3.472.896-1.176 2.034-2.128 3.416-2.856 1.4-.747 2.79-1.12 4.172-1.12.69 0 1.4.13 2.128.392l-.644 14.756L16.663.393h4.032l-2.94 20.608h-4.032l1.792-12.572-5.264 12.572H6.415l.56-12.628-4.676 12.628H.059L7.17 1.765ZM24.226 21.169c-1.382 0-2.455-.355-3.22-1.064-.766-.728-1.148-1.857-1.148-3.388 0-1.288.252-2.707.756-4.256a9.767 9.767 0 0 1 2.464-4.004c1.138-1.139 2.585-1.708 4.34-1.708 2.053 0 3.08.896 3.08 2.688a5.018 5.018 0 0 1-.896 2.884c-.598.877-1.391 1.587-2.38 2.128a7.814 7.814 0 0 1-3.164.896 21 21 0 0 0-.056 1.12c0 .915.158 1.54.476 1.876.317.317.83.476 1.54.476 1.008 0 1.866-.233 2.576-.7.728-.467 1.521-1.176 2.38-2.128h.952c-2.072 3.453-4.639 5.18-7.7 5.18Zm.056-7.168c.69-.037 1.344-.28 1.96-.728a4.934 4.934 0 0 0 1.512-1.708 4.36 4.36 0 0 0 .588-2.184c0-.765-.234-1.148-.7-1.148-.672 0-1.335.588-1.988 1.764-.635 1.176-1.092 2.51-1.372 4.004Z" fill="#fff"/><path d="M35.924 28.001c-.896 0-1.643-.233-2.24-.7-.598-.467-.896-1.139-.896-2.016 0-1.064.43-1.923 1.288-2.576.858-.635 1.95-1.167 3.276-1.596l.336-1.484c-.952 1.027-2.072 1.54-3.36 1.54-1.064 0-1.95-.364-2.66-1.092-.71-.728-1.064-1.867-1.064-3.416 0-1.381.27-2.828.812-4.34.56-1.53 1.381-2.819 2.464-3.864 1.101-1.064 2.408-1.596 3.92-1.596.765 0 1.334.13 1.708.392.373.261.56.607.56 1.036v.168l.308-1.456h4.032l-2.772 12.992c.896-.299 1.614-.747 2.156-1.344.541-.597.998-1.484 1.372-2.66h1.176c-.504 1.661-1.186 2.884-2.044 3.668a6.934 6.934 0 0 1-2.912 1.568l-.42 2.016c-.374 1.81-1.018 3.052-1.932 3.724a5.025 5.025 0 0 1-3.108 1.036Zm.224-9.548c.43 0 .868-.196 1.316-.588.448-.392.756-.924.924-1.596l1.428-6.636c0-.224-.094-.448-.28-.672-.187-.243-.476-.364-.868-.364-.747 0-1.419.439-2.016 1.316-.598.859-1.064 1.904-1.4 3.136-.336 1.213-.504 2.287-.504 3.22 0 .933.13 1.53.392 1.792.28.261.616.392 1.008.392Zm-.868 7.364c.317 0 .625-.215.924-.644.298-.43.532-1.045.7-1.848l.168-.812c-1.83.672-2.744 1.465-2.744 2.38 0 .243.084.457.252.644.168.187.401.28.7.28Z" fill="#fff"/><path d="M48.52 21.169c-1.065 0-1.952-.364-2.66-1.092-.71-.728-1.065-1.867-1.065-3.416 0-1.381.27-2.828.812-4.34.56-1.53 1.382-2.819 2.464-3.864 1.102-1.064 2.408-1.596 3.92-1.596.766 0 1.335.13 1.708.392.373.261.56.607.56 1.036v.196l.308-1.484H58.6l-2.016 9.52c-.075.28-.112.579-.112.896 0 .373.084.644.252.812.187.15.486.224.896.224.261 0 .467-.037.616-.112-.41 1.045-.803 1.783-1.176 2.212-.373.41-.914.616-1.624.616-.765 0-1.39-.224-1.876-.672-.466-.467-.756-1.11-.868-1.932-1.139 1.736-2.53 2.604-4.172 2.604Zm1.82-2.716c.466 0 .923-.215 1.371-.644.467-.448.784-1.055.952-1.82l1.344-6.328c0-.243-.093-.476-.28-.7-.186-.243-.476-.364-.868-.364-.747 0-1.419.439-2.016 1.316-.597.859-1.064 1.904-1.4 3.136-.336 1.213-.504 2.287-.504 3.22 0 .933.13 1.53.392 1.792.28.261.616.392 1.008.392ZM62.85 26.797c-1.326 0-2.352-.364-3.08-1.092-.71-.71-1.065-1.661-1.065-2.856 0-1.008.309-1.885.925-2.632.615-.747 1.446-1.12 2.491-1.12.803 0 1.456.121 1.96.364.523.224.784.728.784 1.512 0 .336-.055.71-.167 1.12-.336-.28-.626-.476-.868-.588a2.245 2.245 0 0 0-.813-.14c-.616 0-1.1.205-1.456.616-.336.41-.504.896-.504 1.456 0 .653.197 1.139.588 1.456.392.336.831.504 1.316.504.449 0 .822-.093 1.12-.28.318-.168.598-.504.84-1.008.243-.485.476-1.204.7-2.156l4.397-19.992c-1.251.504-2.222 1.279-2.912 2.324C66.415 5.33 66.07 6.6 66.07 8.093c0 .69.065 1.176.196 1.456.13.261.195.41.195.448-1.007 0-1.763-.205-2.267-.616-.486-.43-.729-1.13-.729-2.1 0-1.195.486-2.352 1.456-3.472.99-1.139 2.25-2.053 3.78-2.744C70.233.355 71.763.001 73.294.001h1.12l-4.2 19.88c-.486 2.296-1.288 4.023-2.409 5.18-1.12 1.157-2.772 1.736-4.956 1.736ZM76.601 21.169c-1.064 0-1.95-.364-2.66-1.092-.71-.728-1.064-1.867-1.064-3.416 0-1.381.27-2.828.812-4.34.56-1.53 1.382-2.819 2.464-3.864 1.101-1.064 2.408-1.596 3.92-1.596.766 0 1.335.13 1.708.392.373.261.56.607.56 1.036v.196l.308-1.484h4.032l-2.016 9.52c-.075.28-.112.579-.112.896 0 .803.383 1.204 1.148 1.204.523 0 .97-.243 1.344-.728.392-.485.7-1.12.924-1.904h1.176c-.69 2.016-1.55 3.388-2.576 4.116-1.008.71-2.025 1.064-3.052 1.064-.784 0-1.418-.215-1.904-.644-.466-.448-.746-1.092-.84-1.932-.541.765-1.148 1.39-1.82 1.876-.653.467-1.437.7-2.352.7Zm1.82-2.716c.467 0 .924-.215 1.372-.644.467-.448.784-1.055.952-1.82l1.344-6.328c0-.243-.093-.476-.28-.7-.186-.243-.476-.364-.868-.364-.746 0-1.419.439-2.016 1.316-.597.859-1.064 1.904-1.4 3.136-.336 1.213-.504 2.287-.504 3.22 0 .933.13 1.53.392 1.792.28.261.616.392 1.008.392Z" fill="#fff"/><path d="M91.984 21.169c-1.382 0-2.455-.355-3.22-1.064-.766-.728-1.148-1.857-1.148-3.388 0-1.288.252-2.707.755-4.256a10.178 10.178 0 0 1 2.464-4.004c1.14-1.139 2.577-1.708 4.313-1.708 1.12 0 1.913.243 2.38.728.485.485.727 1.101.727 1.848 0 .653-.14 1.157-.42 1.512-.28.355-.634.532-1.063.532-.318 0-.645-.112-.98-.336.223-.616.335-1.167.335-1.652 0-.355-.065-.635-.195-.84-.131-.205-.327-.308-.588-.308-.56 0-1.12.457-1.68 1.372-.56.915-1.018 2.025-1.373 3.332-.354 1.307-.531 2.483-.531 3.528 0 .915.158 1.54.475 1.876.318.317.831.476 1.54.476 1.008 0 1.867-.233 2.576-.7.728-.467 1.522-1.176 2.38-2.128h.952c-2.072 3.453-4.638 5.18-7.7 5.18Z" fill="#fff"/><path d="M109.254 21.169c-1.158 0-2.035-.27-2.632-.812-.598-.56-.896-1.353-.896-2.38 0-.448.056-.933.168-1.456l.224-1.092c.074-.317.112-.663.112-1.036 0-.896-.336-1.344-1.008-1.344-.299 0-.616.084-.952.252-.318.168-.691.43-1.12.784l-1.456 6.916h-4.032l4.06-19.04 4.144-.56-2.1 9.856 5.404-4.256h2.772l-5.6 3.892a3.58 3.58 0 0 1 .924-.112c1.008 0 1.773.308 2.296.924.522.616.784 1.4.784 2.352 0 .392-.038.747-.112 1.064l-.308 1.4c-.094.336-.14.635-.14.896 0 .69.364 1.036 1.092 1.036.41 0 .672-.028.784-.084a.88.88 0 0 1 .196-.084c-.038.616-.215 1.139-.532 1.568-.299.43-.654.756-1.064.98-.392.224-.728.336-1.008.336Z" fill="#fff"/></svg>
